X: 26672
T: Midnight Ramble, The
R: slide
M: 12/8
K: Gmajor
E|D2G B2G B2c B3|D2G B2G A3 G2E|
D2G B2G B2c B3|d2e dBG A3 G2:|
z|g2f e2f g2e d3|g2f e2f g3 a3|
b2a g2f e2f g2e|d2e dBG A3 G2:|

